webapp/src/assets/icons/cloudproviders/aws/architecture_services/rds.svg

<svg width="40" height="40" xmlns="http://www.w3.org/2000/svg"><path d="M11.854 28.854 7.708 33H10.5v1h-4a.5.5 0 0 1-.5-.5v-4h1v2.793l4.147-4.146.707.707ZM33 29.5h1v4c0 .277-.223.5-.5.5h-4v-1h2.793l-4.146-4.146.707-.707L33 32.293V29.5Zm1-23v4h-1V7.708l-4.146 4.146-.707-.707L32.293 7H29.5V6h4a.5.5 0 0 1 .5.5Zm-27 4H6v-4a.5.5 0 0 1 .5-.5h4v1H7.527l4.319 4.14-.691.721L7 7.88v2.62Zm25.726 8.9c0-1.558-1.806-3.1-4.83-4.123l.32-.947c3.502 1.185 5.51 3.033 5.51 5.07 0 2.037-2.008 3.886-5.51 5.071l-.32-.948c3.024-1.023 4.83-2.565 4.83-4.123Zm-24.989 0c0 1.492 1.69 2.993 4.521 4.014l-.34.94c-3.293-1.187-5.181-2.993-5.181-4.954 0-1.961 1.888-3.767 5.181-4.955l.34.941c-2.831 1.021-4.521 2.522-4.521 4.014Zm12.286-3.681c-3.136 0-4.891-.799-4.917-1.125.026-.326 1.781-1.125 4.917-1.125 3.133 0 4.89.798 4.917 1.125-.027.326-1.784 1.125-4.917 1.125Zm0 3.555c-3.182 0-4.917-.926-4.917-1.402v-2.03c1.135.595 3.069.877 4.917.877 1.848 0 3.782-.282 4.917-.877v2.03c0 .476-1.735 1.402-4.917 1.402Zm0 3.737c-3.182 0-4.917-.927-4.917-1.403v-2.343c1.119.665 3.023 1.009 4.917 1.009 1.894 0 3.798-.344 4.917-1.009v2.343c0 .476-1.735 1.403-4.917 1.403Zm0 3.279c-3.182 0-4.917-.915-4.917-1.385v-1.904c1.119.666 3.023 1.01 4.917 1.01 1.894 0 3.798-.344 4.917-1.01v1.904c0 .47-1.735 1.385-4.917 1.385Zm0-13.821c-2.85 0-5.917.665-5.917 2.125v10.311c0 1.566 2.977 2.385 5.917 2.385s5.917-.819 5.917-2.385V14.594c0-1.46-3.067-2.125-5.917-2.125Z" fill="#C925D1" fill-rule="evenodd"/></svg>

<?xml version="1.0" encoding="UTF-8"?>
<svg width="40px" height="40px" viewBox="0 0 40 40" version="1.1" xmlns="http://www.w3.org/2000/svg" xmlns:xlink="http://www.w3.org/1999/xlink">
    <title>Icon-Architecture/32/Arch_Amazon-RDS_32</title>
    <g id="Icon-Architecture/32/Arch_Amazon-RDS_32" stroke="none" stroke-width="1" fill="none" fill-rule="evenodd">
        <path d="M11.854,28.854 L7.708,33 L10.5,33 L10.5,34 L6.5,34 C6.224,34 6,33.777 6,33.5 L6,29.5 L7,29.5 L7,32.293 L11.147,28.147 L11.854,28.854 Z M33,29.5 L34,29.5 L34,33.5 C34,33.777 33.777,34 33.5,34 L29.5,34 L29.5,33 L32.293,33 L28.147,28.854 L28.854,28.147 L33,32.293 L33,29.5 Z M34,6.5 L34,10.5 L33,10.5 L33,7.708 L28.854,11.854 L28.147,11.147 L32.293,7 L29.5,7 L29.5,6 L33.5,6 C33.777,6 34,6.224 34,6.5 L34,6.5 Z M7,10.5 L6,10.5 L6,6.5 C6,6.224 6.224,6 6.5,6 L10.5,6 L10.5,7 L7.527,7 L11.846,11.14 L11.155,11.861 L7,7.88 L7,10.5 Z M32.726,19.4 C32.726,17.842 30.92,16.3 27.896,15.277 L28.216,14.33 C31.718,15.515 33.726,17.363 33.726,19.4 C33.726,21.437 31.718,23.286 28.216,24.471 L27.896,23.523 C30.92,22.5 32.726,20.958 32.726,19.4 L32.726,19.4 Z M7.737,19.4 C7.737,20.892 9.427,22.393 12.258,23.414 L11.918,24.354 C8.625,23.167 6.737,21.361 6.737,19.4 C6.737,17.439 8.625,15.633 11.918,14.445 L12.258,15.386 C9.427,16.407 7.737,17.908 7.737,19.4 L7.737,19.4 Z M20.023,15.719 C16.887,15.719 15.132,14.92 15.106,14.594 C15.132,14.268 16.887,13.469 20.023,13.469 C23.156,13.469 24.913,14.267 24.94,14.594 C24.913,14.92 23.156,15.719 20.023,15.719 L20.023,15.719 Z M20.023,19.274 C16.841,19.274 15.106,18.348 15.106,17.872 L15.106,15.842 C16.241,16.437 18.175,16.719 20.023,16.719 C21.871,16.719 23.805,16.437 24.94,15.842 L24.94,17.872 C24.94,18.348 23.205,19.274 20.023,19.274 L20.023,19.274 Z M20.023,23.011 C16.841,23.011 15.106,22.084 15.106,21.608 L15.106,19.265 C16.225,19.93 18.129,20.274 20.023,20.274 C21.917,20.274 23.821,19.93 24.94,19.265 L24.94,21.608 C24.94,22.084 23.205,23.011 20.023,23.011 L20.023,23.011 Z M20.023,26.29 C16.841,26.29 15.106,25.375 15.106,24.905 L15.106,23.001 C16.225,23.667 18.129,24.011 20.023,24.011 C21.917,24.011 23.821,23.667 24.94,23.001 L24.94,24.905 C24.94,25.375 23.205,26.29 20.023,26.29 L20.023,26.29 Z M20.023,12.469 C17.173,12.469 14.106,13.134 14.106,14.594 L14.106,24.905 C14.106,26.471 17.083,27.29 20.023,27.29 C22.963,27.29 25.94,26.471 25.94,24.905 L25.94,14.594 C25.94,13.134 22.873,12.469 20.023,12.469 L20.023,12.469 Z" id="Amazon-RDS_Icon_32_Squid" fill="#C925D1"></path>
    </g>
</svg>
